resources/haticons/SVG/roundcube.svg

<!-- Generated by IcoMoon.io -->
<svg version="1.1" xmlns="http://www.w3.org/2000/svg" width="24" height="24" viewBox="0 0 24 24">
<title>roundcube</title>
<path fill="#37beff" d="M19.9 8.6c0 1.2-0.3 2.3-0.7 3.3l0.7-0.4 3.4-2-2.7-1.5c-0.3-4.5-4-8-8.6-8s-8.3 3.5-8.6 8l-2.7 1.6 3.1 1.8 0.9 0.5c-0.5-1-0.7-2.1-0.7-3.3 0-4.4 3.6-7.9 7.9-7.9 4.5 0 8 3.5 8 7.9zM0.1 17.3l11.6 6.7v-7.4l-11.6-6.7zM12.3 16.6v7.4l11.6-6.7v-7.4z"></path>
</svg>

<svg xmlns="http://www.w3.org/2000/svg" width="24" height="24"><path fill="#37beff" d="M19.9 8.6c0 1.2-.3 2.3-.7 3.3l.7-.4 3.4-2L20.6 8c-.3-4.5-4-8-8.6-8S3.7 3.5 3.4 8L.7 9.6l3.1 1.8.9.5c-.5-1-.7-2.1-.7-3.3C4 4.2 7.6.7 11.9.7c4.5 0 8 3.5 8 7.9zM.1 17.3L11.7 24v-7.4L.1 9.9zm12.2-.7V24l11.6-6.7V9.9z"/></svg>
